symbolic/22x22/actions/mail-flag.svg

<svg xmlns="http://www.w3.org/2000/svg" width="22" height="22"><defs><style id="current-color-scheme" type="text/css"></style></defs><path style="fill:currentColor;color:#323a41" d="M11 8v6h1v-2l4-1-4-3zM2 2C0 2 0 4 0 4v8s0 2 2 2h8V8L8 9 2 6V4l6 3 6-3v2l-2 1h.334L16 9.75V4s0-2-2-2z" transform="translate(3 3)"/></svg>

<svg xmlns="http://www.w3.org/2000/svg" width="22" height="22" version="1.1">
 <defs>
  <style id="current-color-scheme" type="text/css">
   .ColorScheme-Text { color:#323a41; } .ColorScheme-Highlight { color:#4285f4; } .ColorScheme-NeutralText { color:#ff9800; } .ColorScheme-PositiveText { color:#4caf50; } .ColorScheme-NegativeText { color:#f44336; }
  </style>
 </defs>
 <g transform="translate(3,3)">
  <path style="fill:currentColor" class="ColorScheme-Text" d="M 11,8 V 14 H 12 V 12 L 16,11 12,8 Z M 2,2 C 0,2 0,4 0,4 V 12 C 0,12 0,14 2,14 H 10 V 8 L 8,9 2,6 V 4 L 8,7 14,4 V 6 L 12,7 H 12.334 L 16,9.75 V 4 C 16,4 16,2 14,2 Z"/>
 </g>
</svg>
